X: 305802
M: 2/4
L: 1/16
K: C
c2ge afdB | c2c2 Bcde | fgef decd | B2G2 GABG |\
c2ge afdB | c2c2 Bcde | fgaf edcB | c2c2c2 H|]
ef |\
g^fgf gfgf | g=fed cBAG | agfe dcBA | BAG^F GABc |\
dBdB defg | gege gfed | cBcB cde^f | g2g2 gGA"^D.C."B |]
a2 |\
c'4 b2a2 | a2^g^f e2e2 | c'4 b2a2 | e'2e'2 e'2a2 |\
c'4 b2a2 | a2^g^f e2e2 | c2B2 A2^d2 | e2e2"^D.C."e2 |]


